!!!OTL: The Knight on the Road, S. 66
!!!id: I0517
**kern
*clefG2
*k[]
*F:
{4c
=1
4f
4f
4f
4f
=2
4dd
4cc
4a
4g
=3
2f
4d
4c
=4
4d
2f}
=5
{4c
=6
4f
4f
4f
4f
=7
4dd
4cc
4cc
4a
=8
2a
4g
4f
=9
2g}
=10
{4a
4cc
=11
2dd
4dd
4cc
=12
2a
4f
4g
=13
4a
4g
4f
4d
=14
2c}
=15
{4c
4d
=16
4f
4f
4f
4f
=17
4dd
4cc
4a
4g
=18
2f
4d
4c
=19
4d
2f}
==
*-
!!!minrhy: 4
!!!meters: 4/4 ]  ZZ[4
!!!cut: The Knight on the Road, S. 66
!!!reg: Irland
!!!trd: O BOYLE, Sean: 25 Irish Folksongs, Dublin 1976
!!!rhy1: X  XXXX  XXXX  X_XX  XX_
!!!rhy2: X  XXXX  XXXX  X_XX  X_
!!!key: I0517  04  F 4/4 ]  ZZ[4
!!!mod: PENTATONIK HALBTONL. GONG]  AMBITUS[9
!!!kad: 12-51
!!!akz: 11631-6-61_1165322_3663131-5_-511631-6-61_
!!!fot: 'a__b__c__d__
!!!for: 'a__aw_b__av_
!!!fok: '~a_^a_Md_~a_
!! PHRAS[AUFTAKTIG]
!!!fkt: Ballade
!! IRISCHE VKL.
!! PR[10] 2K[0] 2G[28] 3K[17] 3G[2] 4A[1] 4Ü[0] 5A[1] 6K[0] 6G[0]
!! 7K[0] 7G[0] 8A[0] MEHR[0] SI[51] ABS[81] SR[28] SP[22]
!! ST[24] 2k[0] 2g[12] 3k[14] 3g[9] 4d[4] 4ü[0] 5d[1] 6k[0] 6g[0]
!! 7k[0] 7g[0] 8d[0] mehr[0] si[40] dm[+11] sr[12] sp[27]
!! 1F[7] 2F[33] 3F[46] 4F[2] LF[0] 2P[0] 3P[11] 4P[0] TRI[0] DF[5] AB[84]
!! TF[0] U3K[0] U3[0] U4[0] U4Ü[0] U5[4] U6K[0] U6[0] U7K[6] U7[0]
!! N1[18] N2K[0] N2[0] N3K[17] N3[1] N4[13] N4Ü[0] N5[22] N6K[0] N6[0]
!!!n7k: 10] N7[0] O1[9] O2K[0] O2[0] O3K[0] O3[0] HÖ[0
